assets/svgs/misc-grey/MiscGrey43.svg

<svg width="42" height="44" viewBox="0 0 42 44" fill="none" xmlns="http://www.w3.org/2000/svg">
<path fill-rule="evenodd" clip-rule="evenodd" d="M38.016 20.4C38.016 20.67 37.787 20.9 37.516 20.9H22.016V9.85997H37.516C37.787 9.85997 38.016 10.09 38.016 10.36V20.4ZM34.516 39.87C34.516 40.3 34.159 40.66 33.736 40.66H22.016V23.9H34.516V39.87ZM6.18199 39.87V23.9H19.016V40.66H6.96099C6.53899 40.66 6.18199 40.3 6.18199 39.87ZM3.01599 20.4V10.36C3.01599 10.09 3.24499 9.85997 3.51599 9.85997H19.016V20.9H3.51599C3.24499 20.9 3.01599 20.67 3.01599 20.4ZM37.516 6.85997H23.642L27.126 2.51997C27.645 1.86997 27.541 0.929966 26.895 0.409966C26.249 -0.110034 25.303 -0.0100338 24.786 0.639966L20.534 5.93997L16.616 0.899966C16.108 0.249966 15.165 0.129966 14.512 0.639966C13.857 1.13997 13.739 2.08997 14.248 2.73997L17.45 6.85997H3.51599C1.58599 6.85997 0.0159912 8.42997 0.0159912 10.36V20.4C0.0159912 22.21 1.41099 23.69 3.18199 23.86V39.87C3.18199 41.96 4.87699 43.66 6.96099 43.66H33.736C35.82 43.66 37.516 41.96 37.516 39.87V23.9C39.445 23.9 41.016 22.33 41.016 20.4V10.36C41.016 8.42997 39.445 6.85997 37.516 6.85997Z" fill="#1A1919"/>
</svg>

<svg xmlns="http://www.w3.org/2000/svg" viewBox="0 0 42 44"><path fill-rule="evenodd" d="M38.016 20.4c0 .27-.229.5-.5.5h-15.5V9.86h15.5c.271 0 .5.23.5.5V20.4zm-3.5 19.47c0 .43-.357.79-.78.79h-11.72V23.9h12.5v15.97zm-28.334 0V23.9h12.834v16.76H6.961a.794.794 0 01-.779-.79zM3.016 20.4V10.36c0-.27.229-.5.5-.5h15.5V20.9h-15.5c-.271 0-.5-.23-.5-.5zm34.5-13.54H23.642l3.484-4.34a1.501 1.501 0 00-2.34-1.88l-4.252 5.3L16.616.9a1.5 1.5 0 00-2.104-.26c-.655.5-.773 1.45-.264 2.1l3.202 4.12H3.516c-1.93 0-3.5 1.57-3.5 3.5V20.4c0 1.81 1.395 3.29 3.166 3.46v16.01c0 2.09 1.695 3.79 3.779 3.79h26.775a3.79 3.79 0 003.78-3.79V23.9c1.929 0 3.5-1.57 3.5-3.5V10.36c0-1.93-1.571-3.5-3.5-3.5z" clip-rule="evenodd"/></svg>
